X:1
T: The Wrights of Litchfield
N:
C:"La Precieuse" by Chaxelle
S: Play  3  times
A:
O:
R:
M:6/8
K:Am
I:speed 150
%W: A1
% voice 1 (1 lines, 39 notes)
K:Am
M:6/8
L:1/16
e2 |e3 f e2 d2 c2 B2 A6 c6 B4 B2 e4 e2 d2 c2 B2 A4 e2 |e3 f e2 d2 c2 B2 A2 B2 c2 d2 e2 f2 e2 a2 c2 B2 d2 ^G2 A6A4 e2 |
%W: A2
% voice 1 (1 lines, 38 notes)
e3 f e2 d2 c2 B2 A6 c6 B4 B2 e4 e2 d2 c2 B2 A4 e2 |e3 f e2 d2 c2 B2 A2 B2 c2 d2 e2 f2 e2 a2 c2 B2 d2 ^G2 A6A4 c2 |
%W: B1
% voice 1 (1 lines, 39 notes)
B2 d2 f2 E2 ^G2 B2 d4 ^G2 A4 c2 B2 ^G2 B2 E3 e d2 c2 B2 c2 A4 c2 |B2 d2 f2 E3 ^G B2 A4 e2 c4 A2 f4 f2 ^d4 d2 e6 e2 d2 e2 |
%W: B2
% voice 1 (1 lines, 31 notes)
f6 f2 d2 B2 A6 ^G2 d2 e2 f6 f2 d2 B2 A6 ^G4 G2 |A4 ^G2 B4 A2 c4 B2 d4 c2 e2 c2 A2 E2 ^F2 ^G2 A6A4 ||
